assets/images/icons/eye.svg

<svg width="14" height="14" viewBox="0 0 14 14" fill="none" xmlns="http://www.w3.org/2000/svg">
<g id="Eye">
<path id="Vector" fill-rule="evenodd" clip-rule="evenodd" d="M0.736078 3.88867C0.917617 3.74077 1.18735 3.76484 1.33854 3.94243C2.33807 5.11652 4.1511 6.5816 6.9987 6.5816C9.84624 6.5816 11.6592 5.11653 12.6588 3.94244C12.81 3.76485 13.0797 3.74078 13.2612 3.88868C13.4428 4.03659 13.4674 4.30045 13.3162 4.47805C13.008 4.84013 12.6261 5.23064 12.1657 5.60508C12.1904 5.63218 12.2119 5.66291 12.2294 5.69697L13.3701 7.92881C13.4757 8.13554 13.3901 8.3869 13.1788 8.49026C12.9675 8.59363 12.7105 8.50981 12.6049 8.30313L11.482 6.10606C10.7701 6.57361 9.91437 6.97617 8.90334 7.20804L9.4144 9.7078C9.46072 9.93442 9.31051 10.1549 9.07881 10.2002C8.84717 10.2455 8.62182 10.0986 8.57545 9.87195L8.06089 7.3551C7.72215 7.39634 7.36818 7.41851 6.9987 7.41851C6.62916 7.41851 6.27519 7.39634 5.93639 7.3551L5.42185 9.87195C5.37552 10.0986 5.15016 10.2455 4.91849 10.2002C4.68683 10.1549 4.53659 9.93442 4.58292 9.7078L5.09399 7.20798C4.25986 7.01671 3.53148 6.70923 2.90234 6.34494L1.35205 8.36706C1.2103 8.55192 0.94217 8.58943 0.753164 8.45077C0.564164 8.31206 0.525859 8.04979 0.667612 7.86487L2.18912 5.88032C1.56541 5.42629 1.06591 4.93002 0.681122 4.47803C0.529931 4.30044 0.554536 4.03657 0.736078 3.88867Z" fill="black"/>
</g>
</svg>

<svg xmlns="http://www.w3.org/2000/svg" width="14" height="14" fill="none"><path fill="#000" fill-rule="evenodd" d="M.736 3.889a.434.434 0 0 1 .603.053c1 1.175 2.812 2.64 5.66 2.64 2.847 0 4.66-1.465 5.66-2.64a.434.434 0 0 1 .602-.053.41.41 0 0 1 .055.589c-.308.362-.69.753-1.15 1.127a.4.4 0 0 1 .063.092l1.141 2.232a.414.414 0 0 1-.191.561.43.43 0 0 1-.574-.187l-1.123-2.197a7.9 7.9 0 0 1-2.579 1.102l.511 2.5a.42.42 0 0 1-.335.492.43.43 0 0 1-.504-.328l-.514-2.517a8.8 8.8 0 0 1-2.125 0l-.514 2.517a.43.43 0 0 1-.504.328.42.42 0 0 1-.335-.492l.511-2.5a7.9 7.9 0 0 1-2.192-.863l-1.55 2.022a.434.434 0 0 1-.599.084.413.413 0 0 1-.085-.586L2.189 5.88A8.8 8.8 0 0 1 .681 4.478a.41.41 0 0 1 .055-.59" clip-rule="evenodd"/></svg>
